X:1
T:Title
%%score ( 1 2 ) ( 3 4 )
L:1/8
Q:1/4=100
M:4/4
K:Ab
V:1 treble nm="Midi_20"
V:2 treble 
V:3 bass nm="Midi_20"
V:4 bass 
V:1
"^Artavia (10. 10 10 6)""^E. J. Hopkins\n(1818-1901)""^Jean Ingelow\n(1820-97)""^And didst thou love the race" E2 | %1
 E4 A4 | A2 G2 F3 E | A4 B4 | c6 || E2 | E4 d4 | d2 c2 B3 A | F4 B4 | G6 ||[M:4/4] E2 | B4 c4 | %12
 A2 A2 G3 A | (B3 B) c4 | d6 || d2 | c4 G2 A2 | F6 E2 | A6 |] %19
V:2
 C2 | C4 C4 | D2 D2 B,3 E | E4 E4 | E6 || C2 | D4 B,4 | B,2 C2 D3 E | F4 F4 | E6 ||[M:4/4] E2 | %11
 D6 E2 | C2 C2 D3 E | (F3 F) E4 | D6 || E2 | E4 E4 | B,2 C2 D4 | C6 |] %19
V:3
 E,2 | E,4 E,4 | E,2 E,2 F,3 G, | A,4 G,4 | A,6 || A,2 | B,4 E,4 | E,2 E,2 G,3 A, | A,4 D4 | B,6 || %10
[M:4/4]"^1. And didst Thou love the race that loved not tThee?\nAnd didst Thou take to heaven a human brow?\nDost plead with man's voice by the marvellous see?\nArt Thou his kinsman now?\n\n2. O God, O kinsman loved, but not enough!\nO man, with eyes majestic after death,\nWhose feet have toiledalong our pathways rough,\nWhose lips drawn human breath;\n\n3. By that one likeness which is ours and Thine,\nBy that one nature which doth hold us kin,\nBy that high heaven where, sinless, Thou dost shine\nTo draw us sinners in.\n" G,2 | %11
 E,4 G,4 | A,2 E,2 E,3 A, | (A,3 A,) A,4 | %14
"^4. By Thy last silence in the judgment hall,\nBy long foreknowledge of the deadly tree,\nBy darkness, by the wormwood and the gall,\nI pray Thee visit me.\n\n5. Come, lest this heart should, cold and cast away,\nDie ere the guest adored she entertain;\nLest eyes which never saw Thy earthly day\nShould miss Thy heavenly reign." A,6 || %15
 B,2 | A,4 B,2 A,2 | A,4 G,4 | A,6 |] %19
V:4
 A,,2 | A,,4 A,,4 | B,,2 B,,2 D,3 D, | C,4 B,,4 | A,,6 || A,,2 | G,,4 G,,4 | A,,2 A,,2 B,,3 C, | %8
 D,4 B,,4 | E,6 ||[M:4/4] E,2 | G,,4 E,4 | A,,2 A,,2 B,,3 C, | (D,3 D,) E,4 | F,6 || G,2 | %16
 A,4 E,2 C,2 | D,4 E,4 | A,,6 |] %19

